P2
# grayscale practice image; inspect least significant bits
240 1
255
100 101 100 100 101 100 100 101 100 101 100 100 100 100 101 101 100 101 100 100 101 101 101 101 100 101 101 101 101 100 101 101 100 101 101 100 101 101 100 100 100 101 101 101 100 100 101 101 100 101 101 100 100 100 101 100 100 101 100 101 101 101 101 101 100 101 101 101 100 100 100 100 100 101 101 100 101 100 100 101 100 101 101 101 101 100 100 100 100 101 101 100 100 101 100 101 100 101 101 100 101 101 100 100 100 101 100 101 101 101 101 101 100 101 101 101 100 101 100 100 100 101 101 101 100 100 101 100 100 101 101 100 100 100 100 101 100 101 101 100 101 100 100 101 100 101 101 100 101 101 100 100 100 101 101 101 101 101 100 101 120 121 122 123 124 125 126 127 128 129 130 131 132 133 134 135 120 121 122 123 124 125 126 127 128 129 130 131 132 133 134 135 120 121 122 123 124 125 126 127 128 129 130 131 132 133 134 135 120 121 122 123 124 125 126 127 128 129 130 131 132 133 134 135 120 121 122 123 124 125 126 127 128 129 130 131 132 133 134 135
